src/assets/images/blocks/ecommerce/storefront/storefront-1-25.svg

<svg fill="none" height="24" viewBox="0 0 36 24" width="36" xmlns="http://www.w3.org/2000/svg"><path d="m0 3c0-1.65685 1.34315-3 3-3h30c1.6569 0 3 1.34315 3 3v18c0 1.6569-1.3431 3-3 3h-30c-1.65685 0-3-1.3431-3-3z" fill="#d8e3f3"/><path d="m30.9829 7.52734h-1.886c-.5701 0-1.0087.17544-1.2719.74562l-3.5965 8.20174h2.5439s.4386-1.0965.5263-1.3596h3.114c.0877.307.307 1.3158.307 1.3158h2.2807zm-2.9825 5.74566c.2193-.5264.965-2.5.965-2.5 0 .0438.2193-.5264.307-.83338l.1754.78948s.4825 2.1491.5702 2.5877h-2.0176z" fill="#3362ab"/><path d="m24.4034 13.5349c0 1.8421-1.6667 3.0702-4.2544 3.0702-1.0965 0-2.1491-.2193-2.7193-.4825l.3509-2.0175.307.1315c.7895.3509 1.3158.4825 2.2807.4825.7017 0 1.4473-.2632 1.4473-.8772 0-.3947-.307-.6579-1.2719-1.0965-.921-.4386-2.1491-1.1403-2.1491-2.4123 0-1.75436 1.7105-2.93857 4.1228-2.93857.9211 0 1.7105.17544 2.193.39474l-.3509 1.92982-.1754-.17544c-.4386-.17543-1.0088-.35087-1.8421-.35087-.9211.04386-1.3597.43859-1.3597.78947 0 .39475.5263.70175 1.3597 1.09645 1.4035.6579 2.0614 1.4036 2.0614 2.4562z" fill="#3362ab"/><path d="m3 7.61294.04386-.17544h3.77193c.52631 0 .92105.17544 1.05263.74561l.83333 3.94739c-.83333-2.1053-2.76315-3.81581-5.70175-4.51756z" fill="#f9b50b"/><g fill="#3362ab"><path d="m14.0086 7.52433-3.8158 8.90347h-2.58771l-2.19298-7.4561c1.57895 1.00877 2.89474 2.5877 3.37719 3.6842l.26316.9211 2.36844-6.09653h2.5877z"/><path d="m15.0175 7.48047h2.4123l-1.5351 8.94733h-2.4123z"/></g></svg>

<svg width="36" height="24" viewBox="0 0 36 24" fill="none" xmlns="http://www.w3.org/2000/svg">
<path d="M0 3C0 1.34315 1.34315 0 3 0H33C34.6569 0 36 1.34315 36 3V21C36 22.6569 34.6569 24 33 24H3C1.34315 24 0 22.6569 0 21V3Z" fill="#D8E3F3"/>
<path d="M30.9829 7.52734H29.0969C28.5268 7.52734 28.0882 7.70278 27.825 8.27296L24.2285 16.4747H26.7724C26.7724 16.4747 27.211 15.3782 27.2987 15.1151C27.5618 15.1151 30.0618 15.1151 30.4127 15.1151C30.5004 15.4221 30.7197 16.4309 30.7197 16.4309H33.0004L30.9829 7.52734ZM28.0004 13.273C28.2197 12.7466 28.9654 10.773 28.9654 10.773C28.9654 10.8168 29.1847 10.2466 29.2724 9.93962L29.4478 10.7291C29.4478 10.7291 29.9303 12.8782 30.018 13.3168H28.0004V13.273Z" fill="#3362AB"/>
<path d="M24.4034 13.5349C24.4034 15.377 22.7367 16.6051 20.149 16.6051C19.0525 16.6051 17.9999 16.3858 17.4297 16.1226L17.7806 14.1051L18.0876 14.2366C18.8771 14.5875 19.4034 14.7191 20.3683 14.7191C21.07 14.7191 21.8156 14.4559 21.8156 13.8419C21.8156 13.4472 21.5086 13.184 20.5437 12.7454C19.6227 12.3068 18.3946 11.6051 18.3946 10.3331C18.3946 8.57874 20.1051 7.39453 22.5174 7.39453C23.4385 7.39453 24.2279 7.56997 24.7104 7.78927L24.3595 9.71909L24.1841 9.54365C23.7455 9.36822 23.1753 9.19278 22.342 9.19278C21.4209 9.23664 20.9823 9.63137 20.9823 9.98225C20.9823 10.377 21.5086 10.684 22.342 11.0787C23.7455 11.7366 24.4034 12.4823 24.4034 13.5349Z" fill="#3362AB"/>
<path d="M3 7.61294L3.04386 7.4375H6.81579C7.3421 7.4375 7.73684 7.61294 7.86842 8.18311L8.70175 12.1305C7.86842 10.0252 5.9386 8.31469 3 7.61294Z" fill="#F9B50B"/>
<path d="M14.0086 7.52433L10.1928 16.4278H7.60509L5.41211 8.9717C6.99106 9.98047 8.30685 11.5594 8.7893 12.6559L9.05246 13.577L11.4209 7.48047H14.0086V7.52433Z" fill="#3362AB"/>
<path d="M15.0175 7.48047H17.4298L15.8947 16.4278H13.4824L15.0175 7.48047Z" fill="#3362AB"/>
</svg>
